X:92
T:Mr. And Mrs. A. Ross 
C:Joe Buchanan's Scottish Tome - Page 115.1
I:115 1
R:Jig
Z:Carl Allison
L:1/8
M:6/8
K:Dmaj
A/>d/ | "D"f3 f>dd | "A7"c>BB B>ef | "Em"g3 g>ee | "A7"(c<e)c B>AA |
"D"f3 f>dd | "A7"c>BB B>ef | "A7"g>ec (A<a)a | "D"{c}d3 d2 :|
f/>g/ | "D"a3 f2 d | "A7"c>BB B>ef | "Em"g3 e2 d | "A7"c<ec "D"B>AA |
"D"a3 f2 d | "A7"c>BB "Em"B>ef | "A7"g<ec c<aa | "D"{c}d3 d2 :|
f | "D"A>dd d3 | "A7"d>cc "Em"c>BB | "Em"B>gg g2 e | "A7"c>ec "D"B>AA |
A>dd d3 | "A7"dc>c c>BB | "A7"g>ec A<aa | "D"{c}d3 d2 :|
f/>g/ | "D"a>fa f>da | "A7"c>BB B>ef | "Em"ge>g g2 e | "A7"c<ec "D"B>AA |
"D"a>fa f>da | c>BB B>ef | "A7"g>ec A<aa | "D"{c}d3 d2 :|

